!!!OTL: 1166. Trinklied.
!!!ODT: 1891
!!!ARE: Europa, Mitteleuropa, Deutschland, Schleswig - Holstein
!!!SCT: E1166
!!!TXL: @@DE
!!!YEM: Copyright 1995, estate of Helmut Schaffrath.
**kern	**text
*ICvox	*
*M6/8	*
*k[f#]	*
*G:	*
!LO:TX:a:t=Schleswig-Holſtein 1891.	!
!LO:TX:a:t=Mel. "Es ritten drei Reiter rc."	!
{8d	Und
=1	=1
4g	wer
8g	im
8g	Januar
8a	.
8b/	ge-
=2	=2
8.bL	-bo-
16aJ	.
8a	-ren
8a	iſt,
8r}	.
{8cc	ſteh
=3	=3
!LO:N:vis=4	!
[4.b	auf;
8b]	.
8r}	.
{16gL	Und
16bJ	.
=4	=4
4dd	wer
8dd	im
8.ddL	(J...)
16ccJ	.
8b	ge-
=5	=5
4cc	-bo-
8ee	-ren
8eeL	iſt,
8ddJ}	.
{8cc	der
=6	=6
4b	neh'm
8b	ſein
8.bL	Gläs-
16aJ	.
8g	-lein
=7	=7
8.a/L	von
16ddJ	.
8dd	dem
4dd}	Tiſch
{8cc	und
=8	=8
4b	trink
8b	es
8.aL	fröh-
16gJ	.
8a	-lich
=9	=9
(4g	aus,
8ee	.
4dd)}	.
{8cc	und
=10	=10
4b/	trink
8b/	es
8.aL	fröh-
16gJ	.
8a	-lich
=11	=11
[4.g	aus!
8g]	.
8r}	.
==	==
!!!AGN: Trink -, Zech - Lied
!!!ONB: ESAC (Essen Associative Code) Database: ERK3
!!!AMT: compound duple
!!!AIN: vox
!!!EED: Helmut Schaffrath
!!!EEV: 1.0
!!!GTL: Trink- und Zechlieder.
!!!URL-scan: https://rosdok.uni-rostock.de/mcrviewer/recordIdentifier/rosdok_ppn745177999/iview2/phys_0093.iview2?x=188.1684953369795&y=198.69427299161907&scale=0.701185927818147&rotation=0&layout=singlePageLayout
!!!ENC: Anna Maria Matuszewska
!!!EEV: 2024/12/23
*-	*-
